packages/sights/assets/overlays/RMeCZRbd.svg

<svg width="500" height="375" viewBox="0 0 500 375" fill="none" xmlns="http://www.w3.org/2000/svg">
<path d="M146.631 36.2556L155.081 25.6356L180.301 11.8756C180.301 11.8756 259.641 3.15553 316.301 11.8756L344.081 25.1756L353.921 36.2556C353.921 36.2556 387.171 103.596 388.321 115.746C388.321 115.746 453.131 199.056 458.321 213.126C458.321 213.126 474.521 252.256 475.441 265.406L481.861 331.406L464.431 367.946" stroke="white" stroke-miterlimit="10"/>
<path d="M146.81 36.0459C146.81 36.0459 112.7 108.866 111.55 117.356C111.55 117.356 51.7 193.936 44.14 207.696C44.14 207.696 27.63 250.346 24.88 264.796L18 334.256L33.82 367.966" stroke="white" stroke-miterlimit="10"/>
<path d="M152.601 36.0461C152.601 36.0461 288.341 29.2561 347.081 36.0461C347.081 36.0461 381.631 104.286 388.081 125.046C388.081 125.046 357.811 142.166 250.191 140.046C250.191 140.046 150.831 141.566 111.391 123.226L152.601 36.0461Z" stroke="white" stroke-miterlimit="10"/>
<path d="M116.779 102.915L115.679 85.3655C98.0191 75.8455 85.8691 90.5255 85.8691 90.5255L88.9691 98.8955L95.7291 106.345C95.7291 106.345 104.099 110.935 108.729 112.425C110.239 113.389 111.315 114.903 111.729 116.645" stroke="white" stroke-miterlimit="10"/>
<path d="M384.08 102.336C384.08 102.336 385.92 84.7955 385.92 85.0155C385.92 85.2355 390.73 81.8055 390.73 81.8055C390.73 81.8055 409.84 81.1955 415.04 89.6855C415.04 89.6855 413.28 100.846 404.26 106.426L390.35 113.426C389.88 113.832 389.518 114.35 389.298 114.931C389.078 115.512 389.007 116.139 389.09 116.756" stroke="white" stroke-miterlimit="10"/>
<path d="M25 264.156L30 272.156L90.23 325.666C90.23 325.666 251.65 356.666 406.66 325.666L470.4 270.256L474.93 261.636" stroke="white" stroke-miterlimit="10"/>
<path d="M22.6309 287.456L25.0009 296.736C25.0009 296.736 60.4209 355.136 79.2209 367.976" stroke="white" stroke-miterlimit="10"/>
<path d="M477.461 286.096C477.461 286.096 463.071 328.096 419.961 367.976" stroke="white" stroke-miterlimit="10"/>
<path d="M95.5913 326.586L96.0713 335.876L65.0312 354.086" stroke="white" stroke-miterlimit="10"/>
<path d="M402.369 326.476V335.566L433.049 354.906" stroke="white" stroke-miterlimit="10"/>
</svg>

<svg width="500" height="375" fill="none" xmlns="http://www.w3.org/2000/svg"><path d="m146.631 36.256 8.45-10.62 25.22-13.76s79.34-8.72 136 0l27.78 13.3 9.84 11.08s33.25 67.34 34.4 79.49c0 0 64.81 83.31 70 97.38 0 0 16.2 39.13 17.12 52.28l6.42 66-17.43 36.54" stroke="#fff" stroke-miterlimit="10"/><path d="M146.81 36.046s-34.11 72.82-35.26 81.31c0 0-59.85 76.58-67.41 90.34 0 0-16.51 42.65-19.26 57.1L18 334.256l15.82 33.71" stroke="#fff" stroke-miterlimit="10"/><path d="M152.601 36.046s135.74-6.79 194.48 0c0 0 34.55 68.24 41 89 0 0-30.27 17.12-137.89 15 0 0-99.36 1.52-138.8-16.82l41.21-87.18ZM116.779 102.915l-1.1-17.55c-17.66-9.52-29.81 5.16-29.81 5.16l3.1 8.37 6.76 7.45s8.37 4.59 13 6.08a6.9 6.9 0 0 1 3 4.22M384.08 102.336s1.84-17.54 1.84-17.32c0 .22 4.81-3.21 4.81-3.21s19.11-.61 24.31 7.88c0 0-1.76 11.16-10.78 16.74l-13.91 7a3.74 3.74 0 0 0-1.26 3.33M25 264.156l5 8 60.23 53.51s161.42 31 316.43 0l63.74-55.41 4.53-8.62M22.63 287.456l2.37 9.28s35.42 58.4 54.22 71.24M477.461 286.096s-14.39 42-57.5 81.88" stroke="#fff" stroke-miterlimit="10"/><path d="m95.591 326.586.48 9.29-31.04 18.21M402.369 326.476v9.09l30.68 19.34" stroke="#fff" stroke-miterlimit="10"/></svg>
